gtk-icons/Papirus-GTK/16x16/mimetypes/x-content-audio-player.svg

<?xml version="1.0" encoding="UTF-8"?>
<svg xmlns="http://www.w3.org/2000/svg" xmlns:xlink="http://www.w3.org/1999/xlink" width="16px" height="16px" viewBox="0 0 16 16" version="1.1">
<g id="surface1">
<path style=" stroke:none;fill-rule:nonzero;fill:rgb(96.078431%,43.137255%,17.254902%);fill-opacity:1;" d="M 8 0 C 4.132812 0 1 3.132812 1 7 L 1 11.5 C 1 13.285156 2.269531 13.769531 3 13.902344 L 3 7 C 3 4.230469 5.230469 2 8 2 C 10.769531 2 13 4.230469 13 7 L 13 13.90625 C 13.730469 13.773438 15 13.285156 15 11.5 L 15 7 C 15 3.132812 11.867188 0 8 0 Z M 8 0 "/>
<path style=" stroke:none;fill-rule:nonzero;fill:rgb(96.862745%,54.509804%,33.72549%);fill-opacity:1;" d="M 3 8 L 3 15 L 5.5 15 L 5.5 8 Z M 10.5 8 L 10.5 15 L 13 15 L 13 8 Z M 10.5 8 "/>
<path style=" stroke:none;fill-rule:nonzero;fill:rgb(100%,100%,100%);fill-opacity:0.101961;" d="M 8 0 C 4.132812 0 1 3.132812 1 7 L 1 7.5 C 1 3.632812 4.132812 0.5 8 0.5 C 11.867188 0.5 15 3.632812 15 7.5 L 15 7 C 15 3.132812 11.867188 0 8 0 Z M 8 0 "/>
<path style=" stroke:none;fill-rule:nonzero;fill:rgb(100%,100%,100%);fill-opacity:0.101961;" d="M 3 8 L 3 8.5 L 5.5 8.5 L 5.5 8 Z M 10.5 8 L 10.5 8.5 L 13 8.5 L 13 8 Z M 10.5 8 "/>
<path style=" stroke:none;fill-rule:nonzero;fill:rgb(0%,0%,0%);fill-opacity:0.301961;" d="M 8 1.5 C 5.230469 1.5 3 3.730469 3 6.5 L 3 7 C 3 4.230469 5.230469 2 8 2 C 10.769531 2 13 4.230469 13 7 L 13 6.5 C 13 3.730469 10.769531 1.5 8 1.5 Z M 1 11 L 1 11.5 C 1 13.285156 2.269531 13.769531 3 13.902344 L 3 13.402344 C 2.269531 13.269531 1 12.785156 1 11 Z M 15 11 C 15 12.785156 13.730469 13.273438 13 13.40625 L 13 13.90625 C 13.730469 13.773438 15 13.285156 15 11.5 Z M 3 14.5 L 3 15 L 5.5 15 L 5.5 14.5 Z M 10.5 14.5 L 10.5 15 L 13 15 L 13 14.5 Z M 10.5 14.5 "/>
</g>
</svg>

<?xml version="1.0" encoding="UTF-8" standalone="no"?>
<svg xmlns="http://www.w3.org/2000/svg" height="16px" width="16px" version="1.1" xmlns:xlink="http://www.w3.org/1999/xlink" viewBox="0 0 16 16">
 <g id="surface1">
  <path fill="#f46e2c" d="m8 0c-3.8672 0-7 3.1328-7 7v4.5c0 1.785 1.2695 2.27 2 2.402v-6.902c0-2.7695 2.2305-5 5-5 2.77 0 5 2.2305 5 5v6.906c0.73-0.133 2-0.621 2-2.406v-4.5c0-3.8672-3.133-7-7-7z"/>
  <path fill="#f68b55" d="m3 8v7h2.5v-7zm7.5 0v7h2.5v-7z"/>
  <path fill="#fff" d="m8 0c-3.8672 0-7 3.1328-7 7v0.5c0-3.8672 3.1328-7 7-7 3.867 0 7 3.1328 7 7v-0.5c0-3.8672-3.133-7-7-7z" fill-opacity=".10196"/>
  <path fill="#fff" d="m3 8v0.5h2.5v-0.5zm7.5 0v0.5h2.5v-0.5z" fill-opacity=".10196"/>
  <path d="m8 1.5c-2.7695 0-5 2.2305-5 5v0.5c0-2.7695 2.2305-5 5-5 2.77 0 5 2.2305 5 5v-0.5c0-2.7695-2.23-5-5-5zm-7 9.5v0.5c0 1.785 1.2695 2.27 2 2.402v-0.5c-0.7305-0.132-2-0.617-2-2.402zm14 0c0 1.785-1.27 2.273-2 2.406v0.5c0.73-0.133 2-0.621 2-2.406zm-12 3.5v0.5h2.5v-0.5zm7.5 0v0.5h2.5v-0.5z" fill-opacity=".30196"/>
 </g>
</svg>
